docs/.gitbook/assets/icon-tack-disabled-16@dark.svg

<svg width="32" height="32" viewBox="0 0 16 16" fill="none" xmlns="http://www.w3.org/2000/svg">
<rect x="0" y="0" width="16" height="16" fill="#181c1f"/>
<path fill-rule="evenodd" clip-rule="evenodd" d="M2.26762 1.17574C2.58479 0.90932 3.05788 0.950458 3.3243 1.26762L3.76355 1.79054C4.07052 1.32253 4.59831 1.00002 5.22708 1.00002H10.773C12.0111 1.00002 12.8577 2.25044 12.3978 3.39995L11.5179 5.59975L10.8216 5.32121L11.5179 5.59976C11.5061 5.62928 11.5 5.66079 11.5 5.6926V6.11464C12.94 6.50016 14 7.81363 14 9.37502C14 10.2725 13.2725 11 12.375 11H11.4995L13.8243 13.7676C14.0907 14.0848 14.0496 14.5579 13.7324 14.8243C13.4152 15.0907 12.9422 15.0496 12.6757 14.7324L2.17574 2.23241C1.90932 1.91525 1.95046 1.44216 2.26762 1.17574ZM10.2395 9.50002H12.375C12.4441 9.50002 12.5 9.44405 12.5 9.37502C12.5 8.36962 11.7084 7.54869 10.7149 7.50212C10.3148 7.48336 10 7.1535 10 6.75294V5.6926C10 5.46997 10.0425 5.24938 10.1252 5.04267L11.0051 2.84287C11.0708 2.67865 10.9499 2.50002 10.773 2.50002H5.22708C5.05021 2.50002 4.92927 2.67865 4.99496 2.84287L5.31083 3.63254L10.2395 9.50002ZM4.02494 7.00218C4.32079 7.29209 4.32561 7.76694 4.0357 8.06278C3.70356 8.40173 3.50002 8.86383 3.50002 9.37498C3.50002 9.44401 3.55598 9.49998 3.62502 9.49998H5.25002C5.66423 9.49998 6.00002 9.83576 6.00002 10.25C6.00002 10.6642 5.66423 11 5.25002 11H3.62502C2.72755 11 2.00002 10.2724 2.00002 9.37498C2.00002 8.45564 2.36859 7.62089 2.96434 7.01293C3.25424 6.71709 3.72909 6.71227 4.02494 7.00218ZM8.00002 12C8.41423 12 8.75002 12.3358 8.75002 12.75V14.25C8.75002 14.6642 8.41423 15 8.00002 15C7.5858 15 7.25002 14.6642 7.25002 14.25V12.75C7.25002 12.3358 7.5858 12 8.00002 12Z" fill="#fff"/>
</svg>

<svg xmlns="http://www.w3.org/2000/svg" width="32" height="32" fill="none" viewBox="0 0 16 16"><path fill="#181c1f" d="M0 0h16v16H0z"/><path fill="#fff" fill-rule="evenodd" d="M2.268 1.176a.75.75 0 0 1 1.056.092l.44.523A1.74 1.74 0 0 1 5.227 1h5.546a1.75 1.75 0 0 1 1.625 2.4l-.88 2.2-.696-.279.696.279a.3.3 0 0 0-.018.093v.422a3.376 3.376 0 0 1 2.5 3.26c0 .898-.727 1.625-1.625 1.625h-.876l2.325 2.768a.75.75 0 1 1-1.148.964l-10.5-12.5a.75.75 0 0 1 .092-1.056M10.24 9.5h2.135c.07 0 .125-.056.125-.125a1.875 1.875 0 0 0-1.785-1.873.75.75 0 0 1-.715-.75v-1.06c0-.222.043-.443.125-.65l.88-2.2a.25.25 0 0 0-.232-.342H5.227a.25.25 0 0 0-.232.343l.316.79zM4.024 7.002c.296.29.3.765.01 1.06A1.87 1.87 0 0 0 3.5 9.376c0 .069.056.125.125.125H5.25a.75.75 0 0 1 0 1.5H3.625A1.625 1.625 0 0 1 2 9.375c0-.92.369-1.754.964-2.362a.75.75 0 0 1 1.06-.01M8 12a.75.75 0 0 1 .75.75v1.5a.75.75 0 0 1-1.5 0v-1.5A.75.75 0 0 1 8 12" clip-rule="evenodd"/></svg>
